src/lib/packages/icons/src/assets/filled/baguette.svg

<svg width="24" height="24" viewBox="0 0 24 24" fill="none" xmlns="http://www.w3.org/2000/svg">
<path d="M9.33002 9.20023C9.57002 8.95023 9.83003 8.69022 10.07 8.47022C10.15 8.39022 10.26 8.37021 10.36 8.40021L14.02 9.49021C14.09 9.51021 14.16 9.52021 14.23 9.52021C14.55 9.52021 14.85 9.31023 14.95 8.98023C15.07 8.59023 14.84 8.17021 14.45 8.05021L12.06 7.34022C11.83 7.27022 11.77 6.97022 11.96 6.81022C15.78 3.69022 19.34 2.20021 20.57 3.43021C22.08 4.95021 19.48 10.0102 14.74 14.7402C10.01 19.4802 4.95002 22.0802 3.43002 20.5702C2.33002 19.4702 3.40003 16.5102 5.88003 13.1602C5.95003 13.0602 6.09003 13.0102 6.21003 13.0502L9.47002 14.0302C9.55002 14.0502 9.62003 14.0602 9.69003 14.0602C10.01 14.0602 10.31 13.8502 10.41 13.5302C10.53 13.1302 10.3 12.7102 9.91003 12.5902L7.37002 11.8302C7.37002 11.8302 7.19003 11.7802 7.16003 11.6802C7.13003 11.5902 7.18003 11.5102 7.21003 11.4802C7.25003 11.4302 7.29002 11.3902 7.33002 11.3402C7.48002 11.1602 7.64003 10.9902 7.80003 10.8102C7.87003 10.7202 8.00002 10.6802 8.11002 10.7202L11.7 11.8002C11.78 11.8202 11.85 11.8302 11.92 11.8302C12.24 11.8302 12.54 11.6202 12.64 11.3002C12.76 10.9002 12.53 10.4802 12.14 10.3602L9.44003 9.55021C9.38003 9.52021 9.29002 9.48024 9.28002 9.39024C9.27002 9.32024 9.28002 9.25023 9.34002 9.20023H9.33002Z" fill="currentColor"/>
</svg>

<svg xmlns="http://www.w3.org/2000/svg" width="24" height="24" fill="none"><path fill="currentColor" d="M9.33 9.2c.24-.25.5-.51.74-.73.08-.08.19-.1.29-.07l3.66 1.09a.756.756 0 0 0 .93-.51.752.752 0 0 0-.5-.93l-2.39-.71a.306.306 0 0 1-.1-.53c3.82-3.12 7.38-4.61 8.61-3.38 1.51 1.52-1.09 6.58-5.83 11.31-4.73 4.74-9.79 7.34-11.31 5.83-1.1-1.1-.03-4.06 2.45-7.41a.3.3 0 0 1 .33-.11l3.26.98a.76.76 0 0 0 .94-.5c.12-.4-.11-.82-.5-.94l-2.54-.76s-.18-.05-.21-.15c-.03-.09.02-.17.05-.2.04-.05.08-.09.12-.14.15-.18.31-.35.47-.53.07-.09.2-.13.31-.09l3.59 1.08a.76.76 0 0 0 .94-.5c.12-.4-.11-.82-.5-.94l-2.7-.81c-.06-.03-.15-.07-.16-.16-.01-.07 0-.14.06-.19h-.01Z"/></svg>
